UI/Devices-Sensors/SVG/logic_outline_24px.svg

<svg width="24" height="24" viewBox="0 0 24 24" fill="none" xmlns="http://www.w3.org/2000/svg">
<path d="M6 20C6 20.3956 5.8827 20.7822 5.66294 21.1111C5.44318 21.44 5.13082 21.6964 4.76537 21.8478C4.39992 21.9991 3.99778 22.0387 3.60982 21.9616C3.22186 21.8844 2.86549 21.6939 2.58579 21.4142C2.30608 21.1345 2.1156 20.7781 2.03843 20.3902C1.96126 20.0022 2.00087 19.6001 2.15224 19.2346C2.30362 18.8692 2.55996 18.5568 2.88886 18.3371C3.21776 18.1173 3.60444 18 4 18C4.53043 18 5.03914 18.2107 5.41421 18.5858C5.78929 18.9609 6 19.4696 6 20ZM21 11V16H19V11H16L12 15L8 11H5V16H3V11C3 10.4696 3.21071 9.96086 3.58579 9.58579C3.96086 9.21071 4.46957 9 5 9H8L11 6V2H13V6L16 9H19C19.5304 9 20.0391 9.21071 20.4142 9.58579C20.7893 9.96086 21 10.4696 21 11ZM13.67 10L12 8.33L10.33 10L12 11.67L13.67 10ZM22 18H18V22H22V18Z" fill="#0F1621"/>
</svg>

<svg xmlns="http://www.w3.org/2000/svg" width="24" height="24" viewBox="0 0 24 24"><rect width="24" height="24" transform="translate(24) rotate(90)" style="fill:none"/><path d="M6,20a2,2,0,1,1-2-2A2,2,0,0,1,6,20Zm15-9v5H19V11H16l-4,4L8,11H5v5H3V11A2,2,0,0,1,5,9H8l3-3V2h2V6l3,3h3A2,2,0,0,1,21,11Zm-7.33-1L12,8.33,10.33,10,12,11.67ZM22,18H18v4h4Z"/></svg>
